X:1
T:Title
%%score { ( 1 4 ) | ( 2 3 5 ) }
L:1/8
M:4/4
K:C
V:1 treble nm="Grand Piano"
V:4 treble 
V:2 bass 
V:3 bass 
V:5 bass 
V:1
 z4 z2[Q:1/4=100] _E^G | [_Ec]c[DB]c [^F_e]^c[=F^G]_B | [_Ec]c[DB]c [F^c]2 [E=c]c | %3
 [_Ec]_B[CA]B [Ec]B[^CF]G | ^G-[_EG-][DG-][^CG-] [=CG]2 EG | [_Ec]c[DB]c [^F_e]^c[=F^G]_B | %6
 [_Ec]c[DB]c [F^c]2 [E=c]c | [Dc]_B[DA]B [D^G]DcB |[M:3/4] _e6 |[M:1/4] _e[Fd] | %10
[M:4/4] [G^c]G=c_B [G_e][F^c]FG | [C_B][C^G][_Ec][CG] [CE]2 [E_e][Fd] | .^c2 z2 ._e2 z2 | c6 z2 | %14
 [^Gf][Gf]cc _ee_BB | %15
[M:9/8] cc[F^c] [Fc] [DFG]2- [DFG][CEG][CEG][Q:1/4=97][Q:1/4=94][Q:1/4=91][Q:1/4=88][Q:1/4=84][Q:1/4=81][Q:1/4=78] | %16
[M:4/4] [CF^G][CFG][^CF_B][F=B] c_e c>B |[M:3/4] [C^G]6 |] %18
V:2
 z4 z2 CC | z _E z E z[K:treble] F z F | z _E z E ^G,,2 z E | z ^C z C z C z C | %4
 ^G,,-[G,,-^F,][G,,-=F,][G,,-=E,] [G,,_E,]2 CC | z _E z E z[K:treble] F z F | z _E z E ^G,,2 z E | %7
 z D z D F,2 DD |[M:3/4] [_E,_E]-[E,-G,E-] [E,E]-[E,-A,E-] [E,_B,E]2 |[M:1/4] [_E,C_E][E,B,] | %10
[M:4/4] [_E,_B,][E,B,_E][E,G,E][E,G,E] [E,B,][E,B,][E,G,^C][E,C] | %11
 [^G,,_E,][G,,E,][G,,^G,][G,,E,] [G,,G,]2 [C,G,][B,,G,] | %12
 _B,,-[B,,_B,] [_E,G,_E]2 [E,B,]2 [E,G,E]2 | [^G,,^G,][G,,G,][G,,G,][G,,G,] [G,,G,]2 [G,_E][G,E] | %14
 [F,C][F,C][F,^G,F][F,G,F] [=G,_B,_E][G,B,E][_E,G,E][E,G,E] | %15
[M:9/8] [^G,_E][F,G,F][_B,,_B,] [B,,B,] =B,,2- B,,C,C, | %16
[M:4/4] F,F,^C,[D,^G,] [_E,G,_E][E,CE] [E,G,E]>[E,=G,^C] |[M:3/4] [^G,,^G,]6 |] %18
V:3
 x8 | ^G,,2 ^G,2 G,,2[K:treble] G,2 | ^G,,2 ^G,2 z2 G,2 | _E,,2 _E,2 E,,2 E,2 | ._E,2 z2 z4 | %5
 ^G,,2 ^G,2 G,,2[K:treble] G,2 | ^G,,2 ^G,2 z2 G,2 | z4 z2 ^G,2 |[M:3/4] .[G,_B,]2 B,2 z2 | %9
[M:1/4] x2 |[M:4/4] x8 | x8 | .G,2 z2 z4 | x8 | x8 |[M:9/8] x9 |[M:4/4] x8 |[M:3/4] x6 |] %18
V:4
 x8 | x8 | x8 | x8 | .C2 z2 z4 | x8 | x8 | x8 |[M:3/4] z _B, ^C=C ^C2 |[M:1/4] x2 |[M:4/4] x8 | %11
 x8 | _E-[EG]=c_B G-[G^c]B=B | _EEEE E2 cc | x8 |[M:9/8] x9 |[M:4/4] x8 |[M:3/4] x6 |] %18
V:5
 x8 | x5[K:treble] x3 | x8 | x8 | x8 | x5[K:treble] x3 | x8 | _B,,2 _B,2 B,,4 |[M:3/4] x6 | %9
[M:1/4] x2 |[M:4/4] x8 | x8 | x8 | x8 | x8 |[M:9/8] x9 |[M:4/4] x8 |[M:3/4] x6 |] %18

